public/images/local.svg

<svg width="64" height="72" viewBox="0 0 64 72" fill="none" xmlns="http://www.w3.org/2000/svg">
<path d="M64 18.271V43.694C64 53.7844 55.5565 61.9651 45.1421 61.9651H43.2347L33.4941 71.3963C33.1127 71.7659 32.5849 72 32 72C31.4596 72 30.97 71.809 30.5949 71.4887L30.4296 71.3285L30.4232 71.3224L20.7653 61.9651H18.8516C8.44347 61.9651 0 53.7844 0 43.694V18.271C0 8.1807 8.44347 0 18.8579 0H45.1421C55.5565 0 64 8.1807 64 18.271Z" fill="#FFD666"/>
<path d="M14.2697 35.219C12.4131 35.219 11.355 37.2687 12.4322 38.7487C16.6205 44.5139 23.5462 48.2728 31.3717 48.2728C39.1972 48.2728 46.1166 44.5077 50.3049 38.7487C51.3821 37.2687 50.3239 35.219 48.4674 35.219H14.2697Z" fill="white"/>
<path d="M25.1432 26.4937H13.9404V21.0196C13.9404 17.9976 16.4497 15.5454 19.5418 15.5454C22.634 15.5454 25.1432 17.9976 25.1432 21.0196V26.4937Z" fill="white"/>
<path d="M48.803 26.4937H37.6002V21.0196C37.6002 17.9976 40.1094 15.5454 43.2016 15.5454C46.2938 15.5454 48.803 17.9976 48.803 21.0196V26.4937Z" fill="white"/>
</svg>

<svg xmlns="http://www.w3.org/2000/svg" width="64" height="72" fill="none"><path fill="#FFD666" d="M64 18.271v25.423c0 10.09-8.444 18.271-18.858 18.271h-1.907l-9.74 9.431c-.382.37-.91.604-1.495.604a2.15 2.15 0 0 1-1.405-.511l-.165-.16-.007-.007-9.658-9.357h-1.913C8.443 61.965 0 53.785 0 43.694V18.271C0 8.181 8.443 0 18.858 0h26.284C55.556 0 64 8.18 64 18.271Z"/><path fill="#fff" d="M14.27 35.219c-1.857 0-2.915 2.05-1.838 3.53 4.188 5.765 11.114 9.524 18.94 9.524 7.825 0 14.745-3.765 18.933-9.524 1.077-1.48.019-3.53-1.838-3.53H14.27ZM25.143 26.494H13.94V21.02c0-3.022 2.51-5.475 5.602-5.475 3.092 0 5.601 2.453 5.601 5.475v5.474ZM48.803 26.494H37.6V21.02c0-3.022 2.51-5.475 5.602-5.475 3.092 0 5.601 2.453 5.601 5.475v5.474Z"/></svg>
